icon-themes/breeze_svg/cmd/32/arrowshapes.up-right-down-arrow.svg

<svg viewBox="0 0 32 32" xmlns="http://www.w3.org/2000/svg"><path d="m13 4-4 5h2v14h-2l4 5 4-5h-2v-5h6v2l5-4-5-4v2h-6v-5h2z" fill="#4d4d4d"/></svg>

<svg xmlns="http://www.w3.org/2000/svg" viewBox="0 0 32 32">
 <path 
     style="fill:#4d4d4d" 
     d="M 13 4 L 9 9 L 11 9 L 11 23 L 9 23 L 13 28 L 17 23 L 15 23 L 15 18 L 21 18 L 21 20 L 26 16 L 21 12 L 21 14 L 15 14 L 15 9 L 17 9 L 13 4 z "
     />
</svg>
